X: 3944
T: Blackbird, The
R: hornpipe
M: 4/4
K: Dmajor
AG|FEFA GFDA|de fe d=cAF|G2GF GFDE|FGAF GBAG|
FEFA GFDA|de fe d=cAF|Ad=cA GBAG|F2D2 D2:|
|:fg|agfa gfec|dc de fdA2|agfa gfee|fagf e2 fg|
afge fdec|dcde fdA2|Ad=cA GBAG|F2D2 D2:|

